X:1
T:097 - Jesus Veio Aqui
T:Letra: Henry Barraclough (1915)
T:Trad.: William Edwin Entzminger (1859-1930)
T:Música: Henry Barraclough (1915)
L:1/4
Q:1/4=140
M:6/4
K:Ebmaj
V:1
B, | "Eb"G2 G "Bb7"F3/2 G/2 A | B2 D "Eb"E2 E | "Ab"c2 B "Bb7"A2 "Eb"G | "Bb"F3- F2 B, | "Eb"G2 G "Bb7"F3/2 G/2 A | ("F#dim"B d) c "Eb/G"B2 "Ab"_A | ("Eb/Bb"G B) A "Bb7"C2 D | "Eb"E3- E2 z || "Eb"G2 G/2 G/2 G3/2 G/2 G | B2 =A "Bb7"_A3 | A2 A/2 A/2 A2 A | "Eb"G3- G2 z | G2 G/2 G/2 G2 B | "F#dim"d2 c ("Eb/G"B2 "Ab"H_A) | ("Eb/Bb"G B) A "Bb7"F G2 | "Eb"E3- E2 |]
w: 1.~Oh, co-moé tão sin-gu-lar Je-sus, Es-bel-toe mui gen-til!_ No ros-to traz u-ma ra_ra luz, Fa-nal_ no mun-do vil!_  Da su-a gló-ria ce-les-ti-al    Vei-o Je-sus a-qui;_ A su-a gra-ça di-vi-nal_    Fê_Loao mun-do vir!_
w: 2.~A su-a vi-da gas-tou a-qui Per-di-dos pra sal-var;_ Na cruz san-gren-ta se deu_ a Si, A fim_ deos res-ga-tar._  
w: 3.~O po-vo, com a-pa-ti-a, viu A pro-va des-sea-mor;_ E su-a gra-ça ja-mais_ me-diu Um mun_do pe-ca-dor._ 
w: 4.~No céu a-go-ra Je-sus es-tá, Mas bre-vehá de vol-tar,_ Eà  gló-riaos sal-vos trans-por_ta-rá, On-dehão_ de des-can-sar._
W: 
W:
W: 1. Oh, como é tão singular Jesus,
W: Esbelto e mui gentil!
W: No rosto traz uma rara luz,
W: Fanal no mundo vil!
W: 
W:    (Estribilho)
W:    Da sua glória celestial
W:    Veio Jesus aqui;
W:    A sua graça divinal
W:    Fê-Lo ao mundo vir!
W: 
W: 2. A sua vida gastou aqui
W: Perdidos pra salvar;
W: Na cruz sangrenta se deu a Si,
W: A fim de os resgatar.
W: 
W:
W:
W: 3. O povo, com apatia, viu
W: A prova desse amor;
W: E sua graça jamais mediu
W: Um mundo pecador.
W: 
W: 4. No céu agora Jesus está,
W: Mas breve há de voltar,
W: E à  glória os salvos transportará,
W: Onde hão de descansar.
W: 
W: 





%wordsfont Times-Roman 13.0
%vocalfont Times-Roman 13.0
